X:270
T: O'Connell's Welcome to Parliament
T: F\'ailte roimh \'O Conaill sa bParlaimint
S: B.Breathnach: "Ceol Rince na hEireann" II/62
Z: B.Black
L: 1/8
M: 6/8
R: jig
K: G
D|EDE G2A|Bee dBA|BdA BdA|BdA BAG|
EDE G2A|Bee dBA|GAB A2A|G3 G2 :|
A|BAB def|gag fed|Bee Bee|BdA BAG|
EDE G2A|Bee dBA|GAB A2A|G3 G2 :|

